dist/svgs/org-chevron-right.svg

<svg xmlns="http://www.w3.org/2000/svg" viewBox="0 0 512 512"><path d="M391 233q9 10 9 23t-9 23L167 503q-9 9-23 9-13 0-23-9-9-10-9-23t9-23l201-201L121 55q-9-10-9-23t9-23q10-9 23-9t23 9l224 224z"/></svg>

<?xml version="1.0" encoding="UTF-8" standalone="no"?><svg   xmlns:svg="http://www.w3.org/2000/svg"   xmlns="http://www.w3.org/2000/svg"   version="1.1"   width="512"   height="512"   viewBox="0 0 512 512">  <path     d="M391 233Q400 243 400 256T391 279L167 503Q158 512 144 512Q131 512 121 503Q112 493 112 480T121 457L322 256L121 55Q112 45 112 32T121 9Q131 0 144 0T167 9L391 233V233z"     id="org-chevron-right" /></svg>
